X:385
T: O'Keeffe's Slide
M: 12/8
L: 1/8
R: Slide
Q: 350
K: Ador
A2e e2d BAB d2B|A2e e2d B2G G3|
A2e e2d BAB d3|BAB d2e B2A A3 :|
e2a a2b a2g e2d|e2a a2b a2g e2f|
g2f g2e dBA G2A|BAB d2e B2A A3 :|
